src/images_karasa_jaga_svg/cmd/32/calloutshapes.rectangular-callout.svg

<svg height="32" viewBox="0 0 32 32" width="32" xmlns="http://www.w3.org/2000/svg" xmlns:xlink="http://www.w3.org/1999/xlink"><linearGradient id="a" gradientUnits="userSpaceOnUse" x1="72" x2="72" y1="128" y2="0"><stop offset="0" stop-color="#fff"/><stop offset=".59375" stop-color="#fff"/><stop offset=".84375" stop-color="#f1f1f1"/><stop offset=".90625" stop-color="#eaeaea"/><stop offset="1" stop-color="#dfdfdf"/></linearGradient><linearGradient id="b" gradientUnits="userSpaceOnUse" x1="8" x2="120" y1="64.33873" y2="64.33873"><stop offset="0" stop-color="#7c9fcf"/><stop offset=".5" stop-color="#7c9ece"/><stop offset="1" stop-color="#7b9dcf"/></linearGradient><g transform="scale(.25)"><path d="m115.99805 8-104.000003.0664062a4.0003015 4.0003015 0 0 0 -3.998047 3.9999998v76a4.0003015 4.0003015 0 0 0 3.996094 4l21.410156.02539-15.464844 22.308594a4.0003015 4.0003015 0 0 0 5.728516 5.44727l35.998047-27.748051 56.339841-.099609a4.0003015 4.0003015 0 0 0 3.99219-4v-76a4.0003015 4.0003015 0 0 0 -4.00195-4z" fill="url(#b)"/><path d="m12 12.06598v76l29.039062.036085-19.810546 28.578125 37.074218-28.578125 57.697266-.102065v-76z" fill="url(#a)"/></g></svg>

<?xml version="1.0" encoding="UTF-8" standalone="no"?>
<!-- Created with Inkscape (http://www.inkscape.org/) -->

<svg
   xmlns:dc="http://purl.org/dc/elements/1.1/"
   xmlns:cc="http://creativecommons.org/ns#"
   xmlns:rdf="http://www.w3.org/1999/02/22-rdf-syntax-ns#"
   xmlns:svg="http://www.w3.org/2000/svg"
   xmlns="http://www.w3.org/2000/svg"
   xmlns:xlink="http://www.w3.org/1999/xlink"
   xmlns:sodipodi="http://sodipodi.sourceforge.net/DTD/sodipodi-0.dtd"
   xmlns:inkscape="http://www.inkscape.org/namespaces/inkscape"
   version="1.1"
   id="svg2"
   width="128"
   height="128"
   viewBox="0 0 128 128"
   sodipodi:docname="calloutshapes.rectangular-callout.svg"
   inkscape:export-filename="/home/rizmut/Dokumen/Rizmut/Github/libreoffice-style-karasa-jaga/build/images_karasa_jaga/cmd/32/calloutshapes.rectangular-callout.png"
   inkscape:export-xdpi="24"
   inkscape:export-ydpi="24"
   inkscape:version="0.92.3 (unknown)">
  <metadata
     id="metadata8">
    <rdf:RDF>
      <cc:Work
         rdf:about="">
        <dc:format>image/svg+xml</dc:format>
        <dc:type
           rdf:resource="http://purl.org/dc/dcmitype/StillImage" />
        <dc:title></dc:title>
      </cc:Work>
    </rdf:RDF>
  </metadata>
  <defs
     id="defs6">
    <linearGradient
       inkscape:collect="always"
       id="linearGradient825">
      <stop
         style="stop-color:#f9f9fa;stop-opacity:1;"
         offset="0"
         id="stop821" />
      <stop
         style="stop-color:#f9f9fa;stop-opacity:0;"
         offset="1"
         id="stop823" />
    </linearGradient>
    <linearGradient
       inkscape:collect="always"
       xlink:href="#linearGradient825"
       id="linearGradient1536"
       x1="70.052383"
       y1="-18.468208"
       x2="62.030193"
       y2="84.412926"
       gradientUnits="userSpaceOnUse" />
    <linearGradient
       id="linearGradient3369">
      <stop
         id="stop3372"
         offset="0"
         style="stop-color:#ffffff;stop-opacity:1;" />
      <stop
         style="stop-color:#ffffff;stop-opacity:1;"
         offset="0.59375"
         id="stop3374" />
      <stop
         style="stop-color:#f1f1f1;stop-opacity:1;"
         offset="0.84375"
         id="stop3376" />
      <stop
         id="stop3378"
         offset="0.90625"
         style="stop-color:#eaeaea;stop-opacity:1;" />
      <stop
         id="stop3384"
         offset="1"
         style="stop-color:#dfdfdf;stop-opacity:1;" />
    </linearGradient>
    <linearGradient
       id="linearGradient7422">
      <stop
         style="stop-color:#7c9fcf;stop-opacity:1"
         offset="0"
         id="stop7424" />
      <stop
         id="stop5348"
         offset="0.5"
         style="stop-color:#7c9ece;stop-opacity:1" />
      <stop
         id="stop7426"
         offset="1"
         style="stop-color:#7b9dcf;stop-opacity:1" />
    </linearGradient>
    <linearGradient
       inkscape:collect="always"
       xlink:href="#linearGradient3369"
       id="linearGradient8528"
       x1="72"
       y1="128"
       x2="72"
       y2="0"
       gradientUnits="userSpaceOnUse" />
    <linearGradient
       inkscape:collect="always"
       xlink:href="#linearGradient7422"
       id="linearGradient844"
       x1="8"
       y1="64.33873"
       x2="120"
       y2="64.33873"
       gradientUnits="userSpaceOnUse" />
  </defs>
  <sodipodi:namedview
     pagecolor="#ffffff"
     bordercolor="#666666"
     borderopacity="1"
     objecttolerance="10"
     gridtolerance="10"
     guidetolerance="10"
     inkscape:pageopacity="0"
     inkscape:pageshadow="2"
     inkscape:window-width="1366"
     inkscape:window-height="706"
     id="namedview4"
     showgrid="true"
     inkscape:snap-page="true"
     inkscape:snap-global="false"
     inkscape:zoom="1.4142136"
     inkscape:cx="45.329491"
     inkscape:cy="92.052489"
     inkscape:window-x="0"
     inkscape:window-y="0"
     inkscape:window-maximized="1"
     inkscape:current-layer="svg2">
    <inkscape:grid
       type="xygrid"
       id="grid27"
       spacingx="4"
       spacingy="4"
       empspacing="2" />
  </sodipodi:namedview>
  <path
     id="circle1528"
     style="opacity:1;fill:url(#linearGradient1536);fill-opacity:1;stroke:none;stroke-width:3.85701394;stroke-linecap:round;stroke-linejoin:bevel;stroke-miterlimit:4;stroke-dasharray:none;stroke-dashoffset:0;stroke-opacity:0.73039216"
     r="42.122112"
     cy="64"
     cx="64" />
  <path
     sodipodi:type="inkscape:offset"
     inkscape:radius="3.9999015"
     inkscape:original="M 116 12 L 12 12.066406 L 12 88.066406 L 41.039062 88.101562 L 21.228516 116.67969 L 58.302734 88.101562 L 116 88 L 116 12 z "
     style="opacity:1;fill:url(#linearGradient844);fill-opacity:1.0;stroke:none;stroke-width:5.29160166;stroke-linecap:square;stroke-linejoin:bevel;stroke-miterlimit:4;stroke-dasharray:none;stroke-dashoffset:0;stroke-opacity:0.73039216"
     id="path834"
     d="M 115.99805,8 11.998047,8.0664062 A 4.0003015,4.0003015 0 0 0 8,12.066406 v 76 a 4.0003015,4.0003015 0 0 0 3.996094,4 l 21.410156,0.02539 -15.464844,22.308593 a 4.0003015,4.0003015 0 0 0 5.728516,5.44727 L 59.667969,92.099609 116.00781,92 A 4.0003015,4.0003015 0 0 0 120,88 V 12 a 4.0003015,4.0003015 0 0 0 -4.00195,-4 z" />
  <path
     style="opacity:1;fill:url(#linearGradient8528);fill-opacity:1;stroke:none;stroke-width:5.29160166;stroke-linecap:square;stroke-linejoin:bevel;stroke-miterlimit:4;stroke-dasharray:none;stroke-dashoffset:0;stroke-opacity:0.73039216"
     d="m 12,12.06598 v 76 L 41.039062,88.102065 21.228516,116.68019 58.302734,88.102065 116,88 V 12 Z"
     id="rect8502"
     inkscape:connector-curvature="0"
     sodipodi:nodetypes="cccccccc" />
</svg>
